X: 1
T: The Chicago
R: reel
M: 4/4
L: 1/8
K: Ador
cded cAGE|~G3E GAcd|ecgc acgc|eaag edcA|
cded cAGE|~G3E GAcd|eaag (3efg ed|cABG ~A3B:|
|:cdef g2ef|gfgd BG~G2|cdef g2fg|eaag aged|
cdef ~g3e|~a3f ~g3e|~f3d efed|cABG ~A3B:|


Tune 840	Setting 14001

